X:340
M:6/8
L:1/8
K:C
E/F/GG c2G|ECC C2:|
f|ega gec|f2e d2c|ega gec|gea gec|fga gec|f2e d2F|E/F/GG c2G|
ECC C2f|ega gec|f2e d2c|ega gec|gea gec|fga gec|fef dgf|ece fdf|ecc c2||

